my-site/themes/moving-test/assets/images/instagram.svg

<svg width="59" height="56" viewBox="0 0 59 56" fill="none" xmlns="http://www.w3.org/2000/svg">
<path d="M29.0479 0.5C44.8397 0.500232 57.5947 12.6228 57.5947 27.5205C57.5947 42.4182 44.8397 54.5408 29.0479 54.541C13.2558 54.541 0.500052 42.4183 0.5 27.5205C0.5 12.6226 13.2558 0.5 29.0479 0.5Z" stroke="#838383"/>
<path d="M35.0159 41.302H23.0777C20.7449 41.2995 18.5084 40.4335 16.859 38.8938C15.2095 37.3542 14.2818 35.2668 14.2793 33.0895L14.2793 21.9472C14.2819 19.77 15.2097 17.6827 16.8592 16.1433C18.5086 14.6038 20.745 13.7378 23.0777 13.7354H35.0159C37.3487 13.7377 39.5852 14.6036 41.2348 16.1431C42.8844 17.6826 43.8123 19.7699 43.8149 21.9472V33.0895C43.8125 35.2669 42.8846 37.3544 41.235 38.894C39.5854 40.4337 37.3488 41.2997 35.0159 41.302ZM23.0777 16.508C21.5327 16.5097 20.0514 17.0833 18.9589 18.103C17.8664 19.1227 17.2518 20.5052 17.25 21.9472V33.0895C17.2518 34.5315 17.8664 35.9139 18.9589 36.9335C20.0515 37.9531 21.5327 38.5266 23.0777 38.5281H35.0159C36.5608 38.5266 38.042 37.9531 39.1345 36.9335C40.2269 35.9139 40.8413 34.5315 40.843 33.0895V21.9472C40.8413 20.5052 40.2269 19.1227 39.1345 18.103C38.0421 17.0833 36.5609 16.5097 35.0159 16.508H23.0777ZM29.0453 34.6473C27.5346 34.6468 26.058 34.2283 24.8022 33.4446C23.5463 32.661 22.5677 31.5473 21.9899 30.2446C21.4122 28.9418 21.2613 27.5084 21.5564 26.1256C21.8515 24.7428 22.5792 23.4727 23.6476 22.4759C24.716 21.4791 26.0772 20.8004 27.5588 20.5256C29.0405 20.2508 30.5763 20.3922 31.9719 20.9319C33.3675 21.4717 34.5602 22.3855 35.3994 23.5579C36.2385 24.7304 36.6863 26.1087 36.6862 27.5187C36.6842 29.409 35.8787 31.2213 34.4466 32.558C33.0144 33.8946 31.0725 34.6462 29.0471 34.6479L29.0453 34.6473ZM29.0453 23.1598C28.1221 23.1598 27.2196 23.4153 26.452 23.894C25.6844 24.3727 25.0861 25.0531 24.7328 25.8491C24.3795 26.6452 24.2871 27.5212 24.4672 28.3663C24.6473 29.2113 25.0919 29.9876 25.7447 30.5969C26.3975 31.2062 27.2292 31.6211 28.1346 31.7892C29.0401 31.9573 29.9786 31.871 30.8315 31.5413C31.6844 31.2115 32.4134 30.6531 32.9263 29.9367C33.4392 29.2203 33.713 28.378 33.713 27.5163C33.711 26.362 33.2188 25.2554 32.3442 24.4392C31.4696 23.6231 30.2839 23.1638 29.0471 23.1621L29.0453 23.1598ZM36.6986 22.1485C36.3366 22.1484 35.9827 22.0481 35.6817 21.8602C35.3807 21.6724 35.1461 21.4055 35.0077 21.0932C34.8693 20.781 34.8331 20.4374 34.9039 20.106C34.9746 19.7746 35.1491 19.4702 35.4052 19.2313C35.6613 18.9924 35.9876 18.8298 36.3427 18.764C36.6979 18.6982 37.0659 18.7321 37.4004 18.8616C37.7349 18.991 38.0207 19.2101 38.2218 19.4911C38.4228 19.7722 38.5301 20.1025 38.5299 20.4405C38.5299 20.8936 38.3373 21.3282 37.9943 21.6489C37.6513 21.9695 37.186 22.1501 36.7005 22.1508L36.6986 22.1485Z" fill="white"/>
</svg>

<svg xmlns="http://www.w3.org/2000/svg" width="59" height="56" fill="none" viewBox="0 0 59 56"><path stroke="#838383" d="M29.048.5C44.84.5 57.595 12.623 57.595 27.52S44.84 54.54 29.048 54.542C13.256 54.541.5 42.418.5 27.521S13.256.5 29.048.5Z"/><path fill="#fff" d="M35.016 41.302H23.078c-2.333-.002-4.57-.868-6.219-2.408s-2.577-3.627-2.58-5.804V21.947c.003-2.177.93-4.264 2.58-5.804s3.886-2.405 6.219-2.408h11.938c2.333.003 4.57.869 6.219 2.408 1.65 1.54 2.577 3.627 2.58 5.804V33.09c-.002 2.177-.93 4.264-2.58 5.804s-3.886 2.406-6.22 2.408M23.078 16.508c-1.545.002-3.027.575-4.12 1.595s-1.706 2.402-1.708 3.844V33.09c.002 1.441.616 2.824 1.709 3.843s2.574 1.594 4.119 1.595h11.938c1.545-.001 3.026-.575 4.119-1.594s1.706-2.402 1.708-3.844V21.947c-.002-1.442-.616-2.824-1.709-3.844s-2.573-1.593-4.118-1.595zm5.967 18.14a8.03 8.03 0 0 1-4.243-1.203 7.26 7.26 0 0 1-2.812-3.2 6.7 6.7 0 0 1-.434-4.12 7 7 0 0 1 2.092-3.65 7.8 7.8 0 0 1 3.91-1.95 8.15 8.15 0 0 1 4.414.407 7.55 7.55 0 0 1 3.427 2.626 6.8 6.8 0 0 1 1.287 3.96c-.002 1.891-.807 3.703-2.24 5.04-1.432 1.337-3.373 2.088-5.399 2.09zm0-11.488c-.923 0-1.825.255-2.593.734a4.44 4.44 0 0 0-1.72 1.955 4.1 4.1 0 0 0-.265 2.517c.18.845.625 1.622 1.278 2.23a4.8 4.8 0 0 0 2.39 1.193 5 5 0 0 0 2.696-.248 4.6 4.6 0 0 0 2.095-1.604 4.15 4.15 0 0 0 .787-2.42c-.002-1.155-.494-2.262-1.369-3.078-.874-.816-2.06-1.275-3.297-1.277zm7.654-1.012c-.362 0-.716-.1-1.017-.288a1.74 1.74 0 0 1-.674-.767 1.6 1.6 0 0 1-.104-.987c.07-.331.245-.636.501-.875s.583-.401.938-.467a1.95 1.95 0 0 1 1.057.098c.335.129.62.348.822.63.2.28.308.61.308.948 0 .454-.193.888-.536 1.209a1.9 1.9 0 0 1-1.294.502z"/></svg>
